X:5
T:Schachli-Juiz. 1987  Bb  ABC
T:Sepp Herger  (* 16.1.1962)
T:Dirigenten-Notiz  Edi Gasser
C:Unterwalden (CH)
%%partsbox
P:ABC
M:3/4
R:Naturjodel
L:1/4
K:Bb
[P:A] d|B2D | F2f | (c3 | c)fd | c2E | Ffd | (B3 | B>) zd | B2D | F2f | 
(c3 | c)fd | c2f | d2c | (B3 | B)zd | B2D | F2f | (c3 | c)fd | c2E | 
Ffd | (B3 | B>)zd | B2D | F2f | (c3 | c)fd | c2f | d2c | (B3 | B)z ||
M:3/4
[P:B] d| f2d | c2f | d2c | B2d | c2f | f2e | (d3 | d)Bd | f2d | c2f | 
d2c | B2d | c2f | d2c | (B3 | B)zd | f2d | c2f | d2c | B2d | c2f | 
f2e | (d3 | d)Bd | f2d | c2f | d2c | B2d | c2f | d2c | (d3 | d)z ||
L:1/8
M:3/4
[P:C] F2 |: D2.F.F .F.F | D2.F.F .F.F | E2.F.F .F.F | A.F .F.F .F.F | E2.F.F .F.F | 
A.F .F.F .F.F | D2.F.F .F.F | B4F2 | D2.F.F .F.F | D2.F.F .F.F | E2.F.F .F.F | 
A.F .F.F .F.F | E2.F.F .F.F | d4c2 |1 (B6 | B2)z2F2 :|2 (B6 | B2)z2 |]
W:
%W:Reihenfolge: A-B-C
W:notiert Edi Gasser
W:UJV-Naturjodelsammlung: Code-Nr: 22-05
W:http://www.naturjodler.ch/code 22.htm  (with AUDIO)
%May 20, 2018

